X:36
T:When Daylight Shines (Carnival of Venice)
Q:1/4=140
I:abc2nwc
M:6/8
L:1/8
K:G
d|gfe dcB|d2c A2B|cBc e2d|B3-B2d|
gfe dcB|d2c A2B|cBc e2F|G3-G2:|
|:D|G2A B2c|d3B2d|e2d c2d|B3-B2D|
G2A B2c|d3g3|fed cBA|G3-G2:|
|:d|dcB BAG|F2A e2e|ded c2d|B3-B2d|
dcB BAG|F2A e2e|d2B dcA|G3-G2:|


